X:106
T: JETZ GANG I DURCHS WIESETHAL
N: E0703
O: Europa, Mitteleuropa, Deutschland, Baden, Schwarzwald
R: Liebes - Lied, Leid, Klage
M: 3/4
L: 1/8
K: G
D2 | G3BB2 | B2A2A2 | G4z2 |
A6 | B3dd2 | d2c2c2 | B6- | B2z2
B2 | B2d2de | d2c2
c2 | BBd2B2 | B2A2z
D | G3ABc | d2d2e2 | d6 |
e6 | d3cB2 | c3BA2 | B6- | B2z2

@@@ Tune index: 4419
